src/assets/images/cube-with-circles.svg

<svg width="24" height="24" viewBox="0 0 24 24" fill="none" xmlns="http://www.w3.org/2000/svg">
<g id="Frame 1942">
<g id="Group 2">
<path id="Vector" fill-rule="evenodd" clip-rule="evenodd" d="M11.6031 1.84107C11.8443 1.67745 12.1584 1.67661 12.4004 1.83894L20.3369 7.16137C20.5395 7.29721 20.6614 7.52751 20.6614 7.77434V15.9415C20.6614 16.1925 20.5353 16.4261 20.3272 16.5609L12.3907 21.6998C12.1532 21.8535 11.8495 21.8527 11.6129 21.6977L3.76654 16.5588C3.56023 16.4237 3.43555 16.1912 3.43555 15.9415V7.77434C3.43555 7.52888 3.55611 7.29966 3.75683 7.16351L11.6031 1.84107ZM12.0056 3.33267L5.45007 7.77954L12.0057 12.3031L18.6366 7.77956L12.0056 3.33267ZM19.2184 9.1504L12.7249 13.5802V19.7431L19.2184 15.5385V9.1504ZM11.2819 19.7348V13.5777L4.87855 9.15922V15.541L11.2819 19.7348Z" fill="#12A594"/>
<circle id="Ellipse 2" cx="12.0487" cy="13.2016" r="2.15323" fill="#12A594"/>
<circle id="Ellipse 3" cx="12.0487" cy="3.15323" r="2.15323" fill="#12A594"/>
<circle id="Ellipse 4" cx="19.9433" cy="7.45987" r="2.15323" fill="#12A594"/>
<circle id="Ellipse 5" cx="19.9433" cy="16.0727" r="2.15323" fill="#12A594"/>
<circle id="Ellipse 6" cx="12.0487" cy="21.0966" r="2.15323" fill="#12A594"/>
<circle id="Ellipse 7" cx="4.15323" cy="16.0727" r="2.15323" fill="#12A594"/>
<circle id="Ellipse 8" cx="4.15323" cy="7.45987" r="2.15323" fill="#12A594"/>
</g>
</g>
</svg>

<svg xmlns="http://www.w3.org/2000/svg" fill="none" viewBox="0 0 24 24"><g fill="#12A594"><path fill-rule="evenodd" d="M11.603 1.841a.71.71 0 0 1 .797-.002l7.937 5.322a.74.74 0 0 1 .324.613v8.167a.74.74 0 0 1-.334.62L12.391 21.7a.71.71 0 0 1-.778-.002l-7.846-5.14a.74.74 0 0 1-.331-.617V7.775c0-.245.12-.474.32-.61zm.403 1.492L5.45 7.78l6.556 4.523 6.63-4.523zm7.212 5.817-6.493 4.43v6.163l6.493-4.204zm-7.936 10.585v-6.157L4.879 9.159v6.382z" clip-rule="evenodd"/><circle cx="12.049" cy="13.202" r="2.153"/><circle cx="12.049" cy="3.153" r="2.153"/><circle cx="19.943" cy="7.46" r="2.153"/><circle cx="19.943" cy="16.073" r="2.153"/><circle cx="12.049" cy="21.097" r="2.153"/><circle cx="4.153" cy="16.073" r="2.153"/><circle cx="4.153" cy="7.46" r="2.153"/></g></svg>
